app/images/language.svg

<svg width="23" height="10" viewBox="0 0 23 10" fill="none" xmlns="http://www.w3.org/2000/svg">
<path d="M3.96094 4.5L5.51367 0.46875H7.41211L4.42969 7.50586L4.18945 7.96875C3.74805 8.73828 3.07227 9.12305 2.16211 9.12305L1.54688 9.09961L1.5293 7.6875C1.62305 7.70312 1.77539 7.71094 1.98633 7.71094C2.23242 7.71094 2.42969 7.66797 2.57812 7.58203C2.73047 7.49609 2.85742 7.33789 2.95898 7.10742L3.17578 6.55078L0.181641 0.46875H2.07422L3.96094 4.5ZM11.127 5.51367H10.1133V9H8.35547V0.46875H10.1133V3.88477H10.916L13.002 0.46875H15.1465L12.5156 4.50586L15.4219 9H13.3242L11.127 5.51367ZM17.8594 5.99414V9H16.1016V0.46875H19.4297C20.0703 0.46875 20.6328 0.585938 21.1172 0.820312C21.6055 1.05469 21.9805 1.38867 22.2422 1.82227C22.5039 2.25195 22.6348 2.74219 22.6348 3.29297C22.6348 4.12891 22.3477 4.78906 21.7734 5.27344C21.2031 5.75391 20.4121 5.99414 19.4004 5.99414H17.8594ZM17.8594 4.57031H19.4297C19.8945 4.57031 20.248 4.46094 20.4902 4.24219C20.7363 4.02344 20.8594 3.71094 20.8594 3.30469C20.8594 2.88672 20.7363 2.54883 20.4902 2.29102C20.2441 2.0332 19.9043 1.90039 19.4707 1.89258H17.8594V4.57031Z" fill="#ffffff"/>
</svg>

<svg width="23" height="10" fill="none" xmlns="http://www.w3.org/2000/svg"><path d="M3.96 4.5L5.515.469h1.898L4.43 7.506l-.24.463c-.442.77-1.118 1.154-2.028 1.154L1.547 9.1l-.018-1.412c.094.015.246.023.457.023.246 0 .444-.043.592-.129.152-.086.28-.244.381-.475l.217-.556L.182.469h1.892L3.961 4.5zm7.167 1.014h-1.014V9H8.355V.469h1.758v3.416h.803L13.002.469h2.144l-2.63 4.037L15.422 9h-2.098l-2.197-3.486zm6.732.48V9h-1.757V.469h3.328c.64 0 1.203.117 1.687.351.488.235.863.569 1.125 1.002.262.43.393.92.393 1.471 0 .836-.287 1.496-.862 1.98-.57.48-1.36.721-2.373.721h-1.54zm0-1.424h1.57c.466 0 .819-.11 1.061-.328.246-.219.37-.531.37-.937 0-.418-.124-.756-.37-1.014s-.586-.39-1.02-.398h-1.61V4.57z" fill="#fff"/></svg>
